svgs/sharp-regular/tree-city.svg

<svg xmlns="http://www.w3.org/2000/svg" viewBox="0 0 640 512"><!--! Font Awesome Pro 6.6.0 by @fontawesome - https://fontawesome.com License - https://fontawesome.com/license (Commercial License) Copyright 2024 Fonticons, Inc. --><path d="M312 0L288 0l0 24 0 464 0 24 48 0 0-24 0-440 128 0 0 168 0 24 24 0 56 0 48 0 0 248 0 24 48 0 0-24 0-272 0-24-24 0-24 0 0-72 0-24-48 0 0 24 0 72-32 0 0-168 0-24L488 0 312 0zm56 80l0 64 64 0 0-64-64 0zm64 96l-64 0 0 64 64 0 0-64zm-64 96l0 64 64 0 0-64-64 0zm192 0l-64 0 0 64 64 0 0-64zm-64 96l0 64 64 0 0-64-64 0zM222 176c1-5 2-10 2-16c0-53-43-96-96-96c-54 0-96 43-96 96c0 6 0 11 1 16C13 190 0 214 0 240l0 80 80 0 16 0 0 192 64 0 0-192 16 0 80 0 0-80c0-26-14-50-34-64z"/></svg>

<svg xmlns="http://www.w3.org/2000/svg" viewBox="0 0 640 512"><!--! Font Awesome Pro 6.5.2 by @fontawesome - https://fontawesome.com License - https://fontawesome.com/license (Commercial License) Copyright 2024 Fonticons, Inc. --><path d="M312 0H288V24 488v24h48V488 48H464V216v24h24 56 48V488v24h48V488 216 192H616 592V120 96H544v24 72H512V24 0H488 312zm56 80v64h64V80H368zm64 96H368v64h64V176zm-64 96v64h64V272H368zm192 0H496v64h64V272zm-64 96v64h64V368H496zM222 176c1-5 2-10 2-16c0-53-43-96-96-96c-54 0-96 43-96 96c0 6 0 11 1 16C13 190 0 214 0 240v80H80 96V512h64V320h16 80V240c0-26-14-50-34-64z"/></svg>
